dist/opencrypto.6a82d41e.svg

<svg xmlns="http://www.w3.org/2000/svg" width="32" height="32" viewBox="0 0 32 32">
  <g fill="none" fill-rule="evenodd">
    <path fill="#1F2D4E" d="M16.0001093,26.7226155 C10.0879093,26.7226155 5.27803952,21.9121556 5.27803952,15.9998178 C5.27803952,10.0875529 10.0879093,5.27738448 16.0001093,5.27738448 C21.9125279,5.27738448 26.7226163,10.0875529 26.7226163,15.9998178 C26.7226163,21.9121556 21.9125279,26.7226155 16.0001093,26.7226155 M16.0001093,0 C7.17746045,0 0,7.17772672 0,15.9998178 C0,24.822419 7.17746045,32 16.0001093,32 C24.8223938,32 32,24.822419 32,15.9998178 C32,7.17772672 24.8223938,0 16.0001093,0"/>
    <path fill="#00C718" d="M15.867986,26.95629 C18.300284,26.95629 20.5429199,26.1102165 22.336364,24.6923214 L18.6238293,20.8761909 C17.8146769,21.3684775 16.8749648,21.6557993 15.867986,21.6557993 C12.8588987,21.6557993 10.4205315,19.1365161 10.4205315,16.0279593 C10.4205315,12.9194768 12.8588987,10.4004906 15.867986,10.4004906 C16.8749648,10.4004906 17.8146769,10.6875154 18.6240461,11.1793564 L22.336364,7.36367153 C20.5429199,5.94562783 18.300284,5.1 15.867986,5.1 C10.0056594,5.1 5.236364,10.002369 5.236364,16.0279593 C5.236364,22.0536239 10.0056594,26.95629 15.867986,26.95629"/>
  </g>
</svg>

<svg xmlns="http://www.w3.org/2000/svg" width="32" height="32"><g fill="none" fill-rule="evenodd"><path fill="#1F2D4E" d="M16 26.723c-5.912 0-10.722-4.81-10.722-10.723 0-5.912 4.81-10.723 10.722-10.723 5.913 0 10.723 4.81 10.723 10.723 0 5.912-4.81 10.723-10.723 10.723M16 0C7.177 0 0 7.178 0 16s7.177 16 16 16c8.822 0 16-7.178 16-16S24.822 0 16 0"/><path fill="#00C718" d="M15.868 26.956c2.432 0 4.675-.846 6.468-2.264l-3.712-3.816a5.28 5.28 0 0 1-2.756.78c-3.01 0-5.447-2.52-5.447-5.628 0-3.109 2.438-5.628 5.447-5.628 1.007 0 1.947.288 2.756.78l3.712-3.816A10.392 10.392 0 0 0 15.868 5.1c-5.862 0-10.632 4.902-10.632 10.928 0 6.026 4.77 10.928 10.632 10.928"/></g></svg>
